X:1
T:Adoro Devote, 11.11.11.11
T:Adoro Devote, 11.11.11.11
T:Benedictine Plainsong, Mode V, 13th Century
T:Public Domain Courtesy of the Cyber Hymnal™
C:Benedictine Plainsong, Mode V, 13th Century
Z:Public Domain
Z:Courtesy of the Cyber Hymnal™
%%score 1 ( 2 3 ) ( 4 5 )
L:1/8
Q:1/4=83
M:none
K:D
V:1 treble 
V:2 treble 
V:3 treble 
V:4 bass 
V:5 bass 
V:1
 DFAA AB A2 | GFED D2 | DFAA AB A2 | GFED D2 | AA Bc d dcA | BAGF E2 | FAGF EDEFDED D4 |] %7
V:2
 DF A2- AB [FA]2 | GFED [B,D]2 | DF A2- AB [CA]2 | GF[CE]D D2 | [D-A]2 Bc d dcA | %5
 BG[B,F][DF] [CE]2 | FAGF EDE FD[CE]D D4 |] %7
V:3
 D4 E2 x2 | B,4 x2 | D4- D2 x2 | B,2 x D2 x | x2 D3- [D-A]3 | D2 x4 | D4 B,3 [A,D]2 x D4 x |] %7
V:4
 [D,F,]4 A,4 | G,4 [B,,F,]2 | F,4 [A,,E,]4 | [E,G,]2 [A,,A,]2 [D,F,]2 | %4
 F,2- [B,,F,-]3 [F,,F,-]2 F, | G,F,E,D, [A,,A,]2 | A,2 B,A, [G,,G,]3 F,,2 [A,,A,]2 [D,F,]4 |] %7
V:5
 x4 C,2 D,2 | E,2 G,,2 x2 | B,,2 F,,2 x4 | x6 | D,C, x4 F, x | x6 | D,4 x11 |] %7

